assets/svg/267f.svg

<svg xmlns="http://www.w3.org/2000/svg" viewBox="0 0 64 64" enable-background="new 0 0 64 64"><circle fill="#428bc1" cx="32" cy="32" r="30"/><g fill="#fff"><path d="m48.657 42.998l-2.477 2.656-5.94-9.181h-7.249v-4.119h7.983v-4.114h-7.983v-8.24h-3.991v20.591h9.11l7.37 11.409 5.52-5.6z"/><circle cx="31" cy="13" r="4"/><path d="m29.375 48.882c-4.549 0-8.248-3.695-8.248-8.235 0-3.043 1.66-5.703 4.123-7.129v-4.518c-4.8 1.699-8.25 6.277-8.25 11.646 0 6.813 5.552 12.354 12.375 12.354 3.885 0 7.355-1.8 9.625-4.604l-2.459-3.682c-1.422 2.487-4.1 4.168-7.166 4.168"/></g></svg>

<svg xmlns="http://www.w3.org/2000/svg" width="64" height="64" viewBox="0 0 64 64"><circle fill="#4FD1D9" cx="32" cy="32" r="30"/><path fill="#FFF" d="M48.657 42.998l-2.48 2.656-5.932-9.181h-7.254v-4.118h7.983v-4.119h-7.983V20H29v20.592h9.109L45.482 52 51 46.402z"/><circle fill="#FFF" cx="31" cy="13" r="4"/><path fill="#FFF" d="M29.375 48.883c-4.549 0-8.248-3.695-8.248-8.236a8.235 8.235 0 0 1 4.123-7.129V29C20.45 30.699 17 35.277 17 40.646 17 47.459 22.552 53 29.375 53A12.36 12.36 0 0 0 39 48.396l-2.459-3.682a8.254 8.254 0 0 1-7.166 4.169z"/></svg>
